static/logo-northstar.svg

<svg fill="none" height="42" viewBox="0 0 256 42" width="256" xmlns="http://www.w3.org/2000/svg"><g fill="#004a43"><path d="m24.4222 23.7908c2.1979 0 3.4237-1.4288 3.4237-4.5401v-18.828093h5.516v39.541693h-5.7229s-10.267-14.3895-14.2021-19.644c-1.6864-2.2954-2.6038-3.7242-4.49717-3.7242-2.19784 0-3.42365 1.4288-3.42365 4.5401v18.8281h-5.51608v-39.541693h5.723s10.267 14.389393 14.202 19.643993c1.6865 2.2954 2.6039 3.7242 4.4972 3.7242z"/><path d="m66.0562 25.2507c0 8.3776-4.9539 15.3264-13.7414 15.3264-8.8889 0-13.8429-6.9488-13.8429-15.3264 0-8.2253 4.954-15.2756 13.8429-15.2756 8.7836 0 13.7414 7.0503 13.7414 15.2756zm-5.4692 0c0-4.6494-3.2714-7.3548-8.2761-7.3548-5.1101 0-8.3775 2.7093-8.3775 7.3548 0 4.8524 3.2713 7.4094 8.3775 7.4094 5.0086 0 8.2761-2.557 8.2761-7.4094z"/><path d="m93.383 30.3765v-12.1253h-4.7002c-5.6215 0-9.0412.5622-10.9853 3.8843-.9213 1.585-1.1243 3.5252-1.1243 6.4374v11.3913h-5.5161v-29.3761h5.5161v7.4601c1.5342-5.11 4.8524-7.4601 10.7784-7.4601h6.0275v-7.51095h5.5161v7.51095h11.1258v7.6631h-11.1258v9.8884"/><path d="m117.044 39.9643v-39.541693h5.516v17.727193c1.226-4.7002 4.751-8.0731 10.267-8.0731 6.387 0 10.728 4.9539 10.728 12.0042v17.8795h-5.516v-14.2021c0-1.8387-.203-3.3221-1.226-4.7509-1.327-1.8387-3.322-2.76-6.18-2.76-3.166 0-6.18 1.1243-7.562 4.9032-.511 1.4288-.511 3.7281-.511 6.1797v10.6262h-5.516z"/><path d="m181.683 30.3765v-12.1253h-4.7v-7.6631h4.7v-7.51095h5.516v7.51095h11.126v7.6631h-11.126v9.8884"/><path d="m224.738 39.9642v-5.5161c-1.686 3.7281-4.7 6.129-9.092 6.129-7.916 0-12.16-6.6912-12.16-15.2756 0-8.4284 4.24-15.3264 12.16-15.3264 4.392 0 7.41 2.4516 9.092 6.1797v-5.5668h5.517v29.3762zm0-14.7135c0-4.6494-3.166-7.3548-7.866-7.3548-4.801 0-7.917 2.7093-7.917 7.3548 0 4.8524 3.116 7.4094 7.917 7.4094 4.7 0 7.866-2.557 7.866-7.4094z"/><path d="m237.355 39.964v-29.3761h5.517v7.4602c1.534-5.1101 4.852-7.4602 10.778-7.4602h2.35v7.6632h-1.023c-5.617 0-9.041.5621-10.985 3.8843-.921 1.5849-1.124 3.5251-1.124 6.4373v11.3913z"/><path d="m187.199 28.1398c0 2.4867.929 4.5362 4.486 4.5362 3.189 0 4.587-1.6084 4.587-4.5636h3.829c.531 8.0731-2.276 12.4649-8.904 12.4649-6.598 0-9.518-4.9383-9.518-10.2007"/><path d="m98.903 28.1398c0 2.4867.9291 4.5362 4.486 4.5362 3.189 0 4.586-1.6084 4.586-4.5636h3.83c.531 8.0731-2.276 12.4649-8.904 12.4649-6.5979 0-9.5179-4.9383-9.5179-10.2007"/><path d="m174.738 31.4851c0 3.9585-2.873 9.092-12.363 9.092-10.322 0-14.171-5.926-13.917-12.4649h3.83c0 1.6357.991 2.8107 2.166 3.5251 2.12 1.2454 5.485 1.4288 8.296 1.4288 3.47 0 6.484-.9056 6.484-2.7756 0-1.0306-.621-1.8738-2.58-2.2291-1.293-.2342-3.088-.5231-5.7-.8432-5.856-.7222-11.825-1.7645-11.825-8.0457 0-5.5044 4.716-9.1974 11.489-9.1974 9.104 0 13.34 5.8791 12.75 11.9886h-3.728c0-1.2883-1.031-2.6663-2.307-3.33-1.48-.7651-3.365-1.2492-6.379-1.2492-3.966 0-6.609.8472-6.609 2.7483 0 1.4835 1.202 2.2447 7.37 2.9474 3.959.4411 6.695.8042 8.569 1.6396 3.225 1.3117 4.454 4.056 4.454 6.7653z"/></g></svg>

<svg width="256" height="42" viewBox="0 0 256 42" fill="none" xmlns="http://www.w3.org/2000/svg">
<path d="M24.4222 23.7908C26.6201 23.7908 27.8459 22.362 27.8459 19.2507V0.422607H33.3619V39.9643H27.639C27.639 39.9643 17.372 25.5748 13.4369 20.3203C11.7505 18.0249 10.8331 16.5961 8.93973 16.5961C6.74189 16.5961 5.51608 18.0249 5.51608 21.1362V39.9643H0V0.422607H5.723C5.723 0.422607 15.99 14.812 19.925 20.0666C21.6115 22.362 22.5289 23.7908 24.4222 23.7908Z" fill="#004A43"/>
<path d="M66.0562 25.2507C66.0562 33.6283 61.1023 40.5771 52.3148 40.5771C43.4259 40.5771 38.4719 33.6283 38.4719 25.2507C38.4719 17.0254 43.4259 9.9751 52.3148 9.9751C61.0984 9.9751 66.0562 17.0254 66.0562 25.2507ZM60.587 25.2507C60.587 20.6013 57.3156 17.8959 52.3109 17.8959C47.2008 17.8959 43.9334 20.6052 43.9334 25.2507C43.9334 30.1031 47.2047 32.6601 52.3109 32.6601C57.3195 32.6601 60.587 30.1031 60.587 25.2507Z" fill="#004A43"/>
<path d="M93.383 30.3765V18.2512H88.6828C83.0613 18.2512 79.6416 18.8134 77.6975 22.1355C76.7762 23.7205 76.5732 25.6607 76.5732 28.5729V39.9642H71.0571V10.5881H76.5732V18.0482C78.1074 12.9382 81.4256 10.5881 87.3516 10.5881H93.3791V3.07715H98.8952V10.5881H110.021V18.2512H98.8952V28.1396" fill="#004A43"/>
<path d="M117.044 39.9643V0.422607H122.56V18.1498C123.786 13.4496 127.311 10.0767 132.827 10.0767C139.214 10.0767 143.555 15.0306 143.555 22.0809V39.9604H138.039V25.7583C138.039 23.9196 137.836 22.4362 136.813 21.0074C135.486 19.1687 133.491 18.2474 130.633 18.2474C127.467 18.2474 124.453 19.3717 123.071 23.1506C122.56 24.5794 122.56 26.8787 122.56 29.3303V39.9565H117.044V39.9643Z" fill="#004A43"/>
<path d="M181.683 30.3765V18.2512H176.983V10.5881H181.683V3.07715H187.199V10.5881H198.325V18.2512H187.199V28.1396" fill="#004A43"/>
<path d="M224.738 39.9642V34.4481C223.052 38.1762 220.038 40.5771 215.646 40.5771C207.73 40.5771 203.486 33.8859 203.486 25.3015C203.486 16.8731 207.726 9.9751 215.646 9.9751C220.038 9.9751 223.056 12.4267 224.738 16.1548V10.588H230.255V39.9642H224.738V39.9642ZM224.738 25.2507C224.738 20.6013 221.572 17.8959 216.872 17.8959C212.071 17.8959 208.955 20.6052 208.955 25.2507C208.955 30.1031 212.071 32.6601 216.872 32.6601C221.572 32.6601 224.738 30.1031 224.738 25.2507Z" fill="#004A43"/>
<path d="M237.355 39.964V10.5879H242.872V18.0481C244.406 12.938 247.724 10.5879 253.65 10.5879H256V18.2511H254.977C249.36 18.2511 245.936 18.8132 243.992 22.1354C243.071 23.7203 242.868 25.6605 242.868 28.5727V39.964H237.355Z" fill="#004A43"/>
<path d="M187.199 28.1398C187.199 30.6265 188.128 32.676 191.685 32.676C194.874 32.676 196.272 31.0676 196.272 28.1124H200.101C200.632 36.1855 197.825 40.5773 191.197 40.5773C184.599 40.5773 181.679 35.639 181.679 30.3766" fill="#004A43"/>
<path d="M98.903 28.1398C98.903 30.6265 99.8321 32.676 103.389 32.676C106.578 32.676 107.975 31.0676 107.975 28.1124H111.805C112.336 36.1855 109.529 40.5773 102.901 40.5773C96.3031 40.5773 93.3831 35.639 93.3831 30.3766" fill="#004A43"/>
<path d="M174.738 31.4851C174.738 35.4436 171.865 40.5771 162.375 40.5771C152.053 40.5771 148.204 34.6511 148.458 28.1122H152.288C152.288 29.7479 153.279 30.9229 154.454 31.6373C156.574 32.8827 159.939 33.0661 162.75 33.0661C166.22 33.0661 169.234 32.1605 169.234 30.2905C169.234 29.2599 168.613 28.4167 166.654 28.0614C165.361 27.8272 163.566 27.5383 160.954 27.2182C155.098 26.496 149.129 25.4537 149.129 19.1725C149.129 13.6681 153.845 9.9751 160.618 9.9751C169.722 9.9751 173.958 15.8542 173.368 21.9637H169.64C169.64 20.6754 168.609 19.2974 167.333 18.6337C165.853 17.8686 163.968 17.3845 160.954 17.3845C156.988 17.3845 154.345 18.2317 154.345 20.1328C154.345 21.6163 155.547 22.3775 161.715 23.0802C165.674 23.5213 168.41 23.8844 170.284 24.7198C173.509 26.0315 174.738 28.7758 174.738 31.4851Z" fill="#004A43"/>
</svg>
